crypto/via.svg

<svg fill="none" height="32" viewBox="0 0 32 32" width="32" xmlns="http://www.w3.org/2000/svg"><path d="m16 32c8.8366 0 16-7.1634 16-16 0-8.83656-7.1634-16-16-16-8.83656 0-16 7.16344-16 16 0 8.8366 7.16344 16 16 16z" fill="#231f20"/><path d="m14.8001 18.6362h2.4l-1.2 2.8647zm-7.3333-10.74286 2.13333 5.01336h-2.13333v2.1485h3.0444l.6112 1.4325h-3.6556v2.1485h4.5666l3.9667 9.3105 3.9667-9.3105h4.5667v-2.1485h-3.6556l.6111-1.4324h3.0445v-2.1486h-2.1334l2.1334-5.01336h-2.8445l-3.5889 8.59436h-4.2l-3.5889-8.59436z" fill="#fff"/></svg>

<svg width="32" height="32" fill="none" xmlns="http://www.w3.org/2000/svg"><path d="M16 32c8.837 0 16-7.163 16-16S24.837 0 16 0 0 7.163 0 16s7.163 16 16 16Z" fill="#231F20"/><path d="M14.8 18.636h2.4L16 21.501l-1.2-2.865ZM7.467 7.893 9.6 12.907H7.467v2.148h3.044l.611 1.433H7.467v2.148h4.566L16 27.946l3.967-9.31h4.567v-2.148h-3.656l.611-1.433h3.044v-2.148H22.4l2.134-5.014h-2.845L18.1 16.488h-4.2l-3.589-8.595H7.467Z" fill="#fff"/></svg>
